X:2
T:Eddie Kelly's
M:4/4
L:1/8
R:reel
Z:Kathy Barwick & Ed Wosik
K:Am
f |: edBG A2 AG | EA (3AAA EA (3AAA | ABcB c3 d | (3eab ba ba g2 |
edBG E3 ^F | G3 A Bded | ac'ba gd (3e^fg | =fdcB c A3 :|
|:\
c3 A AA A/2A/2A/2A/2 | c3 A AA c/2A/2B/2d/2 | {B}c3 B A3 G/2A/2 | Bddc B GBd|
{B}c3 B A3 G/2A/2 | (3Bcd ec d3B | AcBA G^FGD | (3E^FG =FD CB,CA,:||
